X: 1
T: Biodag Aig MacThomais
M: 4/4
L: 1/8
R: strathspey
K: Cmaj
G<EE>D C>EG>A|G<EEe d<c A2|G<EE>D C>EGc|e>dc<A G<E D2:|
E<Gc<G A<Gc<G|E<Gc<G A<GE{GE}D|E<Gc<G A<Gcd|e>dc<A G<E D2|
E<Gc<G A<Gc<G|E<Gce ge f2|a<c'g>e f>de>c|d>Bc>A G<E D2||
